scalable/mimetypes/text-x-readme.svg

<svg xmlns="http://www.w3.org/2000/svg" viewBox="0 0 512 512"><g style="fill-opacity:.078"><path d="m66.61 0c-4.047 0-7.299 3.253-7.299 7.299v497.4c0 4.047 3.253 7.299 7.299 7.299h378.79c4.047 0 7.299-3.253 7.299-7.299v-359.46l-145.21-145.24h-240.88"/><path d="m69.2 3.5c-3.991 0-7.2 3.208-7.2 7.2v490.6c0 3.991 3.208 7.2 7.2 7.2h373.61c3.991 0 7.2-3.208 7.2-7.2v-354.55l-143.22-143.25h-237.59"/><path d="m71.786 7c-3.936 0-7.1 3.164-7.1 7.1v483.8c0 3.936 3.164 7.1 7.1 7.1h368.43c3.936 0 7.1-3.164 7.1-7.1v-349.63l-141.24-141.27h-234.29"/></g><path d="m74.38 10.5c-3.881 0-7 3.119-7 7v477c0 3.881 3.119 7 7 7h363.25c3.881 0 7-3.119 7-7v-344.72l-139.25-139.28h-231" style="fill:#74cce7"/><path d="m308.78 148.78c4.487 5.957 11.24 10.578 16.06 16.313 39.915 39.949 79.85 79.881 119.78 119.81v-135.12h-132.25c-1.321 0-2.542-.37-3.594-1" style="fill-opacity:.235"/><path d="m444.62 149.78l-139.25-139.28v132.28c0 3.881 3.119 7 7 7h132.25" style="fill:#fff;fill-opacity:.196"/><path d="m251.66 177.47c-22.903-.176-39.936 25.959-30.06 46.938 8.03 14.262 21.697 24.2 32.656 36.19 25.26 25.26-18.02 7.302-23.12 10.781-11.943 2.798-14.468-2.455-26.719 13.406 7.205 7.205 14.583 15.05 20.906 21.375 3.448 4.208.973 13.576 1.719 20.13-.109 33.16.211 66.31-.188 99.47 1.027 20.13-31.549 4.367-24.75 24.781 21.1 21.1 34.14 35.529 48.625 50.969h186.91c3.881 0 7-3.119 7-7v-142.06c-55.786-55.779-111.42-111.72-167.47-167.22-6.505-5.284-14.978-7.699-23.281-7.656-.75-.062-1.48-.088-2.219-.094" style="fill-opacity:.235"/><text x="192.13" y="453.75" line-height="125%" style="letter-spacing:0;word-spacing:0;font-size:383.59;font-family:Serif;fill:#fff;font-weight:bold"><tspan x="192.13" y="453.75" style="fill:#fff">i</tspan></text></svg>

<?xml version="1.0" encoding="UTF-8" standalone="no"?>
<!-- Created with Inkscape (http://www.inkscape.org/) -->

<svg
   xmlns:dc="http://purl.org/dc/elements/1.1/"
   xmlns:cc="http://creativecommons.org/ns#"
   xmlns:rdf="http://www.w3.org/1999/02/22-rdf-syntax-ns#"
   xmlns:svg="http://www.w3.org/2000/svg"
   xmlns="http://www.w3.org/2000/svg"
   xmlns:inkscape="http://www.inkscape.org/namespaces/inkscape"
   version="1.1"
   width="100%"
   height="100%"
   viewBox="0 0 512 512"
   id="svg2">
  <metadata
     id="metadata28">
    <rdf:RDF>
      <cc:Work
         rdf:about="">
        <dc:format>image/svg+xml</dc:format>
        <dc:type
           rdf:resource="http://purl.org/dc/dcmitype/StillImage" />
      </cc:Work>
    </rdf:RDF>
  </metadata>
  <defs
     id="defs26" />
  <g
     id="g4"
     style="fill-opacity:0.078">
    <path
       d="m 66.61,0 c -4.047,0 -7.299,3.253 -7.299,7.299 v 497.4 c 0,4.047 3.253,7.299 7.299,7.299 H 445.4 c 4.047,0 7.299,-3.253 7.299,-7.299 V 145.239 L 307.489,-0.001 H 66.609"
       inkscape:connector-curvature="0"
       id="path6" />
    <path
       d="M 69.2,3.5 C 65.209,3.5 62,6.708 62,10.7 v 490.6 c 0,3.991 3.208,7.2 7.2,7.2 h 373.61 c 3.991,0 7.2,-3.208 7.2,-7.2 V 146.75 L 306.79,3.5 H 69.2"
       inkscape:connector-curvature="0"
       id="path8" />
    <path
       d="m 71.786,7 c -3.936,0 -7.1,3.164 -7.1,7.1 v 483.8 c 0,3.936 3.164,7.1 7.1,7.1 h 368.43 c 3.936,0 7.1,-3.164 7.1,-7.1 V 148.27 L 306.076,7 H 71.786"
       inkscape:connector-curvature="0"
       id="path10" />
  </g>
  <path
     d="m 74.38,10.5 c -3.881,0 -7,3.119 -7,7 v 477 c 0,3.881 3.119,7 7,7 h 363.25 c 3.881,0 7,-3.119 7,-7 V 149.78 L 305.38,10.5 h -231"
     inkscape:connector-curvature="0"
     id="path12"
     style="fill:#74cce7" />
  <path
     d="m 308.78,148.78 c 4.487,5.957 11.24,10.578 16.06,16.313 39.915,39.949 79.85,79.881 119.78,119.81 V 149.783 H 312.37 c -1.321,0 -2.542,-0.37 -3.594,-1"
     inkscape:connector-curvature="0"
     id="path14"
     style="fill-opacity:0.23500001" />
  <path
     d="M 444.62,149.78 305.37,10.5 v 132.28 c 0,3.881 3.119,7 7,7 h 132.25"
     inkscape:connector-curvature="0"
     id="path16"
     style="fill:#ffffff;fill-opacity:0.19599998" />
  <path
     d="m 251.66,177.47 c -22.903,-0.176 -39.936,25.959 -30.06,46.938 8.03,14.262 21.697,24.2 32.656,36.19 25.26,25.26 -18.02,7.302 -23.12,10.781 -11.943,2.798 -14.468,-2.455 -26.719,13.406 7.205,7.205 14.583,15.05 20.906,21.375 3.448,4.208 0.973,13.576 1.719,20.13 -0.109,33.16 0.211,66.31 -0.188,99.47 1.027,20.13 -31.549,4.367 -24.75,24.781 21.1,21.1 34.14,35.529 48.625,50.969 h 186.91 c 3.881,0 7,-3.119 7,-7 V 352.45 c -55.786,-55.779 -111.42,-111.72 -167.47,-167.22 -6.505,-5.284 -14.978,-7.699 -23.281,-7.656 -0.75,-0.062 -1.48,-0.088 -2.219,-0.094"
     inkscape:connector-curvature="0"
     id="path18"
     style="fill-opacity:0.23500001" />
  <text
     x="192.13"
     y="453.75"
     id="text20"
     style="font-size:383.58999634px;font-weight:bold;line-height:125%;letter-spacing:0;word-spacing:0;fill:#ffffff;font-family:Serif">
    <tspan
       x="192.13"
       y="453.75"
       id="tspan22"
       style="fill:#ffffff">i</tspan>
  </text>
</svg>
